X: 1
T: Young Scottie
C: Charles F Sherrit
R: jig
Z: 2014 John Chambers <jc:trillian.mit.edu>
S: PDF image of set for The Ferry Louper, from George Meikle, 2012
M: 6/8
L: 1/8
K: G
B "A"|\
"G"G2G G2B | "D7"AFD DEF | "G"G2B d2B | "D7"def "G7"g2d |\
"C"e2c "Am"cde | "Bm"d2B "Em"GAB | "Am"c2B "A7"A2G | GFE "D7"DEF ||
y2 "B"|\
"G"G2G G2B | "D7"AFD DEF | "G"G2B d2B | "D7"def "G7"g2d |\
"C"e2c "Am"gfe | "Bm"edc "Em"BAG | "Am"AcA "D7"DEF | "G"G3 G2 |]
"B7"B "C"|\
"Em"B2e "B7"e2f | "Em"g3 "(C)"gfe | "B7"f2B agf | "Em"e3 "A7"e2d |\
"D"A2d "A7"d2e | "D"f3 "Bm"f2g | "Em"a2A "A7"gfe | "D"ded cBA ||
y2 "B"|\
"G"G2G G2B | "D7"AFD DEF | "G"G2B d2B | "D7"def "G7"g2d |\
"C"e2c "Am"gfe | "Bm"edc "Em"BAG | "Am"AcA "D7"DEF | "G"G3 G2 |]
